outputs/icons/people/person_walk_round.svg

<svg xmlns="http://www.w3.org/2000/svg" width="1200" height="1200" fill="none"><path fill="#000" d="M675 275c55 0 100-45 100-100S730 75 675 75s-100 45-100 100 45 100 100 100M490 445l-127.656 642.835c-6.389 32.175 18.229 62.165 51.033 62.165 24.334 0 45.418-16.865 50.76-40.61L545 750l105 100v250c0 27.615 22.385 50 50 50s50-22.385 50-50V785.715a25 25 0 0 0-7.76-18.105L645 675l30-150c55.025 63.49 135.13 109.065 225.155 121.56C927.505 650.355 950 627.615 950 600s-22.595-49.485-49.715-54.69C827.485 531.345 767.8 487.395 735 430l-50-80c-20-30-50-50-85-50-15 0-25 5-40 5L315.259 408.544A25 25 0 0 0 300 431.569V600c0 27.615 22.386 50 50 50s50-22.385 50-50V480z"/></svg>

<svg width="1200" height="1200" viewBox="0 0 1200 1200" fill="none" xmlns="http://www.w3.org/2000/svg"><path d="M675 275C730 275 775 230 775 175C775 120 730 75 675 75C620 75 575 120 575 175C575 230 620 275 675 275ZM490 445L362.344 1087.835C355.955 1120.01 380.573 1150 413.377 1150C437.711 1150 458.795 1133.135 464.137 1109.39L545 750L650 850V1100C650 1127.615 672.385 1150 700 1150C727.615 1150 750 1127.615 750 1100V785.715C750 778.87 747.195 772.33 742.24 767.61L645 675L675 525C730.025 588.49 810.13 634.065 900.155 646.56C927.505 650.355 950 627.615 950 600C950 572.385 927.405 550.515 900.285 545.31C827.485 531.345 767.8 487.395 735 430L685 350C665 320 635 300 600 300C585 300 575 305 560 305L315.259 408.544C306.01 412.457 300 421.526 300 431.569V600C300 627.615 322.386 650 350 650C377.614 650 400 627.615 400 600V480L490 445Z" fill="#1D1E23"/></svg>
